public/images/backgrounds/swap-bg.svg

<svg width="419" height="360" viewBox="0 0 419 360" fill="none" xmlns="http://www.w3.org/2000/svg">
<path d="M399.273 240.635C411.028 248.728 416.005 256.092 417.006 266.704L418.068 300.44C417.128 291.214 413.83 283.638 400.335 274.361C400.072 266.056 399.718 254.979 399.465 246.664C399.405 244.853 399.334 242.446 399.273 240.595" fill="#383339"/>
<path d="M231.795 277.375C220.031 269.222 215.064 261.908 214.062 251.307L213.051 217.57C213.991 226.796 217.289 234.373 230.784 243.649C231.047 251.954 231.391 263.041 231.654 271.346C231.714 273.157 231.785 275.575 231.846 277.416" fill="#383339"/>
<path d="M258.774 338.769L274.16 347.873C312.368 369.936 365.304 350.078 392.384 303.515C419.465 256.952 410.512 201.294 372.254 179.232L356.868 170.127C395.075 192.19 404.109 247.827 377.029 294.39C349.948 340.954 297.022 360.831 258.774 338.769Z" fill="#1A161D"/>
<path d="M356.898 170.148C318.65 148.125 265.724 167.953 238.644 214.516C211.564 261.079 220.597 316.706 258.774 338.769C296.952 360.831 349.918 340.974 376.988 294.411C404.058 247.848 395.075 192.21 356.898 170.148Z" fill="#383339"/>
<path d="M347.227 180.567L351.021 182.763C317.517 163.421 271.217 180.891 247.647 221.8C224.077 262.708 232.048 311.537 265.552 330.879L261.758 328.684C228.245 309.342 220.283 260.503 243.843 219.604C267.403 178.706 313.723 161.276 347.227 180.567Z" fill="#29252B"/>
<path d="M349.442 183.218C316.262 164.068 270.428 181.366 247.05 221.86C223.672 262.354 231.603 310.708 264.773 329.857C297.943 349.006 343.778 331.708 367.155 291.214C390.533 250.721 382.602 202.367 349.442 183.218Z" fill="#1A161D"/>
<path d="M269.628 257.923L295.171 285.994L288.828 316.089L269.628 257.923Z" fill="#383339"/>
<path d="M304.751 240.584L296.648 279.035L271.105 250.943L304.012 240.817L304.751 240.584Z" fill="#383339"/>
<path d="M314.098 196.287L304.751 240.584L304.012 240.817L271.105 250.943L314.098 196.287Z" fill="#383339"/>
<path d="M304.751 240.584L331.345 263.659L296.648 279.035L304.751 240.584Z" fill="#383339"/>
<path d="M329.899 270.628L288.828 316.089L295.171 285.994L329.899 270.628Z" fill="#383339"/>
<path d="M314.098 196.287L331.345 263.658L304.751 240.584L314.098 196.287Z" fill="#383339"/>
<path d="M417.006 266.703C416.157 288.189 393.912 304.253 357.505 309.675C357.353 305.002 357.161 298.77 357.009 294.087C338.301 305.529 317.715 313.567 296.203 317.829C314.007 337.291 331.032 348.419 359.053 359C358.901 354.327 358.709 348.095 358.557 343.412C394.974 337.959 417.229 321.895 418.068 300.439L417.006 266.703" fill="#575255"/>
<path d="M214.062 251.307C214.912 229.821 237.157 213.757 273.564 208.335C273.705 213.009 273.908 219.25 274.049 223.924C292.752 212.488 313.331 204.453 334.835 200.192C317.062 180.759 300.027 169.601 272.016 159C272.168 163.674 272.36 169.915 272.501 174.589C236.084 180.041 213.829 196.115 213 217.561L214.062 251.307Z" fill="#575255"/>
<path d="M19.33 81.4501C7.7 89.5001 2.79 96.7302 1.8 107.22L0.799999 140.57C1.73 131.45 4.99 123.96 18.33 114.79C18.59 106.58 18.93 95.6302 19.19 87.4102C19.25 85.6202 19.32 83.2402 19.38 81.4102" fill="#383339"/>
<path d="M184.89 117.77C196.51 109.71 201.43 102.48 202.42 91.9901L203.47 58.6401C202.54 67.7601 199.28 75.2501 185.94 84.4201C185.68 92.6301 185.33 103.59 185.08 111.8C185.02 113.59 184.95 115.98 184.89 117.8" fill="#383339"/>
<path d="M158.18 178.46L142.97 187.46C105.19 209.27 52.87 189.64 26.1 143.61C-0.67 97.58 8.26 42.56 46 20.75L61.22 11.75C23.48 33.58 14.55 88.58 41.32 134.61C68.09 180.64 120.41 200.27 158.18 178.46Z" fill="#1A161D"/>
<path d="M61.25 11.7698C99 -10.0002 151.35 9.59985 178.12 55.6298C204.89 101.66 195.96 156.63 158.18 178.46C120.4 200.29 68.08 180.64 41.32 134.61C14.56 88.5798 23.48 33.5798 61.25 11.7698Z" fill="#383339"/>
<path d="M70.78 22.0701L67 24.2401C100.12 5.12013 145.89 22.3901 169.24 62.8301C192.59 103.27 184.66 151.54 151.54 170.66L155.29 168.49C188.41 149.37 196.34 101.09 172.99 60.6601C149.64 20.2301 103.9 3.00013 70.78 22.0701Z" fill="#29252B"/>
<path d="M68.59 24.6902C101.38 5.76024 146.7 22.8602 169.81 62.8902C192.92 102.92 185.08 150.72 152.28 169.65C119.48 188.58 74.19 171.48 51.07 131.45C27.95 91.4202 35.81 43.6202 68.59 24.6902Z" fill="#1A161D"/>
<path d="M161.64 94.0802C162.85 93.4902 164.33 94.9702 164 96.4302L158.81 118.82C158.727 119.224 158.556 119.605 158.309 119.935C158.061 120.265 157.744 120.537 157.38 120.73L91.29 153.37C90.08 153.96 88.6 152.48 88.94 151.02L94.12 128.63C94.2054 128.226 94.3786 127.845 94.6275 127.515C94.8763 127.185 95.1947 126.914 95.56 126.72L161.64 94.0802Z" fill="#383339"/>
<path d="M133.78 74.2602C134.153 74.0825 134.562 73.9902 134.975 73.9902C135.388 73.9902 135.797 74.0825 136.17 74.2602L157.1 83.7402C158.46 84.3702 158.74 86.4502 157.53 87.0402L91.45 119.7C91.0767 119.878 90.6684 119.97 90.255 119.97C89.8415 119.97 89.4333 119.878 89.06 119.7L68.13 110.21C66.77 109.59 66.49 107.52 67.7 106.92L133.78 74.2602Z" fill="#383339"/>
<path d="M134.12 41.0001C135.33 40.4101 136.81 41.8901 136.48 43.3501L131.29 65.7401C131.207 66.1453 131.034 66.5269 130.785 66.8573C130.536 67.1876 130.217 67.4584 129.85 67.6501L63.77 100.26C62.56 100.85 61.08 99.3701 61.42 97.9101L66.6 75.5201C66.6852 75.1209 66.8541 74.7444 67.0954 74.4151C67.3367 74.0859 67.645 73.8116 68 73.6101L134.12 41.0001Z" fill="#383339"/>
<path d="M1.8 107.22C2.64 128.46 24.63 144.34 60.62 149.7C60.76 145.08 60.96 138.92 61.1 134.29C79.5894 145.596 99.9328 153.541 121.19 157.76C103.62 177 86.78 188 59.09 198.46C59.24 193.84 59.43 187.68 59.57 183.05C23.57 177.66 1.57 161.78 0.75 140.57L1.8 107.22Z" fill="#575255"/>
<path d="M202.42 92C201.58 70.76 179.59 54.88 143.6 49.52C143.45 54.14 143.26 60.31 143.11 64.93C124.618 53.6153 104.266 45.669 83 41.46C100.6 22.26 117.43 11.23 145.13 0.75C144.98 5.37 144.79 11.54 144.64 16.16C180.64 21.55 202.64 37.44 203.47 58.64L202.42 92Z" fill="#575255"/>
</svg>

<svg xmlns="http://www.w3.org/2000/svg" width="419" height="360" fill="none"><path fill="#383339" d="M399.273 240.635c11.755 8.093 16.732 15.457 17.733 26.069l1.062 33.736c-.94-9.226-4.238-16.802-17.733-26.079-.263-8.305-.617-19.382-.87-27.697-.06-1.811-.131-4.218-.192-6.069M231.795 277.375c-11.764-8.153-16.731-15.467-17.733-26.068l-1.011-33.737c.94 9.226 4.238 16.803 17.733 26.079.263 8.305.607 19.392.87 27.697.06 1.811.131 4.229.192 6.07"/><path fill="#1A161D" d="m258.774 338.769 15.386 9.104c38.208 22.063 91.144 2.205 118.224-44.358 27.081-46.563 18.128-102.221-20.13-124.283l-15.386-9.105c38.207 22.063 47.241 77.7 20.161 124.263-27.081 46.564-80.007 66.441-118.255 44.379"/><path fill="#383339" d="M356.898 170.148c-38.248-22.023-91.174-2.195-118.254 44.368s-18.047 102.19 20.13 124.253c38.178 22.062 91.144 2.205 118.214-44.358s18.087-102.201-20.09-124.263"/><path fill="#29252B" d="m347.227 180.567 3.794 2.196c-33.504-19.342-79.804-1.872-103.374 39.037s-15.599 89.737 17.905 109.079l-3.794-2.195c-33.513-19.342-41.475-68.181-17.915-109.08s69.88-58.328 103.384-39.037"/><path fill="#1A161D" d="M349.442 183.218c-33.18-19.15-79.014-1.852-102.392 38.642s-15.447 88.848 17.723 107.997 79.005 1.851 102.382-38.643 15.447-88.847-17.713-107.996"/><path fill="#383339" d="m269.628 257.923 25.543 28.071-6.343 30.095zM304.751 240.584l-8.103 38.451-25.543-28.092 32.907-10.126z"/><path fill="#383339" d="m314.098 196.287-9.347 44.297-.739.233-32.907 10.126z"/><path fill="#383339" d="m304.751 240.584 26.594 23.075-34.697 15.376zM329.899 270.628l-41.071 45.461 6.343-30.095zM314.098 196.287l17.247 67.371-26.594-23.074z"/><path fill="#575255" d="M417.006 266.703c-.849 21.486-23.094 37.55-59.501 42.972-.152-4.673-.344-10.905-.496-15.588a185.7 185.7 0 0 1-60.806 23.742c17.804 19.462 34.829 30.59 62.85 41.171-.152-4.673-.344-10.905-.496-15.588 36.417-5.453 58.672-21.517 59.511-42.973zM214.062 251.307c.85-21.486 23.095-37.55 59.502-42.972.141 4.674.344 10.915.485 15.589a185.7 185.7 0 0 1 60.786-23.732c-17.773-19.433-34.808-30.591-62.819-41.192.152 4.674.344 10.915.485 15.589-36.417 5.452-58.672 21.526-59.501 42.972z"/><path fill="#383339" d="M19.33 81.45C7.7 89.5 2.79 96.73 1.8 107.22l-1 33.35c.93-9.12 4.19-16.61 17.53-25.78.26-8.21.6-19.16.86-27.38.06-1.79.13-4.17.19-6M184.89 117.77c11.62-8.06 16.54-15.29 17.53-25.78l1.05-33.35c-.93 9.12-4.19 16.61-17.53 25.78-.26 8.21-.61 19.17-.86 27.38-.06 1.79-.13 4.18-.19 6"/><path fill="#1A161D" d="m158.18 178.46-15.21 9c-37.78 21.81-90.1 2.18-116.87-43.85S8.26 42.56 46 20.75l15.22-9c-37.74 21.83-46.67 76.83-19.9 122.86s79.09 65.66 116.86 43.85"/><path fill="#383339" d="M61.25 11.77C99-10 151.35 9.6 178.12 55.63s17.84 101-19.94 122.83-90.1 2.18-116.86-43.85S23.48 33.58 61.25 11.77"/><path fill="#29252B" d="M70.78 22.07 67 24.24c33.12-19.12 78.89-1.85 102.24 38.59s15.42 88.71-17.7 107.83l3.75-2.17c33.12-19.12 41.05-67.4 17.7-107.83S103.9 3 70.78 22.07"/><path fill="#1A161D" d="M68.59 24.69c32.79-18.93 78.11-1.83 101.22 38.2s15.27 87.83-17.53 106.76-78.09 1.83-101.21-38.2S35.81 43.62 68.59 24.69"/><path fill="#383339" d="M161.64 94.08c1.21-.59 2.69.89 2.36 2.35l-5.19 22.39a2.8 2.8 0 0 1-1.43 1.91l-66.09 32.64c-1.21.59-2.69-.89-2.35-2.35l5.18-22.39a2.82 2.82 0 0 1 1.44-1.91zM133.78 74.26a2.78 2.78 0 0 1 2.39 0l20.93 9.48c1.36.63 1.64 2.71.43 3.3L91.45 119.7a2.78 2.78 0 0 1-2.39 0l-20.93-9.49c-1.36-.62-1.64-2.69-.43-3.29zM134.12 41c1.21-.59 2.69.89 2.36 2.35l-5.19 22.39a2.79 2.79 0 0 1-1.44 1.91l-66.08 32.61c-1.21.59-2.69-.89-2.35-2.35l5.18-22.39a2.9 2.9 0 0 1 1.4-1.91z"/><path fill="#575255" d="M1.8 107.22c.84 21.24 22.83 37.12 58.82 42.48.14-4.62.34-10.78.48-15.41a183.8 183.8 0 0 0 60.09 23.47C103.62 177 86.78 188 59.09 198.46c.15-4.62.34-10.78.48-15.41-36-5.39-58-21.27-58.82-42.48zM202.42 92c-.84-21.24-22.83-37.12-58.82-42.48-.15 4.62-.34 10.79-.49 15.41A183.4 183.4 0 0 0 83 41.46c17.6-19.2 34.43-30.23 62.13-40.71-.15 4.62-.34 10.79-.49 15.41 36 5.39 58 21.28 58.83 42.48z"/></svg>
